src/images/star-rings-svgrepo-com.svg

<svg version="1.1" xmlns="http://www.w3.org/2000/svg" xmlns:xlink="http://www.w3.org/1999/xlink" width="800px" height="800px" viewBox="0,0,256,256"><g fill="#ffffff" fill-rule="none" stroke="none" stroke-width="1" stroke-linecap="butt" stroke-linejoin="miter" stroke-miterlimit="10" stroke-dasharray="" stroke-dashoffset="0" font-family="none" font-weight="none" font-size="none" text-anchor="none" style="mix-blend-mode: normal"><g transform="translate(-5.32904,-5.33573) scale(10.66667,10.66667)"><path d="M15.6982,3.7536c0.931,-0.45471 1.9669,-0.70945 2.8301,-0.29209c0.4601,0.22248 0.7784,0.59513 0.971,1.03872c0.175,0.40299 0.2463,0.86141 0.2504,1.33553c0.0035,0.3986 -0.0404,0.82915 -0.1245,1.28206c-0.127,0.68464 -0.3474,1.42888 -0.6437,2.20489c-0.031,0.08123 -0.0746,0.15396 -0.1277,0.21681c0.1853,0.06254 0.366,0.12686 0.5421,0.19286l0.0016,0.00061c0.0467,0.01753 0.0979,0.03701 0.1438,0.05471c0.1334,0.05149 0.2639,0.10395 0.3915,0.15734c0.3259,0.13646 0.6324,0.27896 0.917,0.42686c0.2926,0.152 0.5657,0.3114 0.8157,0.478c0.8622,0.5745 1.6047,1.3405 1.6797,2.2963c0.04,0.5095 -0.1212,0.9723 -0.4071,1.3624c-0.2597,0.3543 -0.6195,0.6472 -1.0268,0.8899c-0.3424,0.204 -0.7364,0.3833 -1.1698,0.5392c-0.6553,0.2356 -1.409,0.4208 -2.2285,0.5564c-0.4087,0.0676 -0.7948,-0.2088 -0.8624,-0.6175c-0.0677,-0.4087 0.2088,-0.7948 0.6175,-0.8624c0.5618,-0.093 1.0657,-0.2075 1.5068,-0.3382l0.0051,-0.0016c0.566,-0.168 1.0217,-0.3608 1.3635,-0.5645c0.2943,-0.1753 0.4792,-0.3439 0.5848,-0.488c0.1053,-0.1437 0.1295,-0.257 0.1215,-0.3583c-0.0185,-0.236 -0.247,-0.653 -1.0161,-1.1654c-0.1986,-0.1324 -0.424,-0.2646 -0.6754,-0.3952l-1.2963,-0.5689c-1.7529,-0.6561 -4.1008,-1.15806 -6.6855,-1.33839c-0.3208,-0.02238 -0.637,-0.03924 -0.9481,-0.05079c-0.4164,0.52628 -0.8275,1.08458 -1.2269,1.67028c-0.74368,1.0909 -1.3685,2.163 -1.86544,3.1692c0.31469,0.1792 0.46145,0.5655 0.32989,0.9153c-0.14277,0.3796 -0.56038,0.5755 -0.94168,0.4467c-0.2262,0.5627 -0.40449,1.0935 -0.53289,1.5821c-0.01352,0.0514 -0.02643,0.1022 -0.03875,0.1523l-0.00221,0.0093c-0.19556,0.7989 -0.23856,1.4249 -0.16991,1.8617c0.02664,0.1696 0.06658,0.2951 0.11263,0.3886c0.07033,0.1425 0.15491,0.2108 0.22746,0.2467l0.00391,0.0019c0.04326,0.0209 0.09662,0.0386 0.16363,0.0495c0.12258,0.0201 0.29067,0.0177 0.51193,-0.03c0.39976,-0.0861 0.90675,-0.3053 1.50094,-0.6777c0.13725,-0.086 0.27792,-0.1794 0.42165,-0.28c0.23963,-0.1679 0.48704,-0.3553 0.74044,-0.5617l1.1754,-0.9551c0.3215,-0.2612 0.7938,-0.2123 1.055,0.1091c0.2612,0.3215 0.2124,0.7939 -0.1091,1.0551l-1.1743,0.9542c-0.2787,0.2269 -0.555,0.4365 -0.827,0.627c-0.1632,0.1143 -0.3252,0.222 -0.4856,0.3225c-0.67755,0.4246 -1.3504,0.737 -1.98152,0.873c-0.35636,0.0767 -0.71913,0.1015 -1.0706,0.0439c-0.19701,-0.0323 -0.39006,-0.0905 -0.57384,-0.1794l-0.01634,-0.008c-0.72948,-0.3611 -1.06549,-1.0731 -1.1674,-1.8207c-0.10099,-0.7409 0.00573,-1.6232 0.25284,-2.5635c0.14052,-0.5346 0.3309,-1.1047 0.56798,-1.7005l-0.50676,-0.1789c-0.33652,-0.1262 -0.65689,-0.259 -0.95856,-0.3977c-0.18107,-0.0833 -0.35574,-0.1689 -0.52344,-0.2567c-0.70834,-0.3709 -1.31752,-0.7943 -1.75327,-1.2706c-0.24605,-0.269 -0.45043,-0.5697 -0.57795,-0.9023c-0.07147,-0.1864 -0.11859,-0.3825 -0.13456,-0.586l-0.00134,-0.0181c-0.0562,-0.812 0.38912,-1.4613 0.98327,-1.92643c0.5888,-0.46093 1.40443,-0.8138 2.34096,-1.07472c1.48755,-0.41443 3.40989,-0.63214 5.55173,-0.6077c1.0134,-1.21481 2.0588,-2.2629 3.0598,-3.07795l0.0013,-0.0011c0.0387,-0.03145 0.0814,-0.0659 0.1198,-0.09656c0.1117,-0.08921 0.2229,-0.17545 0.3333,-0.25864c0.2822,-0.21263 0.5599,-0.40531 0.8311,-0.57649c0.2789,-0.17598 0.5543,-0.33139 0.8242,-0.46321zM12.4458,8.31129c1.8259,0.1371 3.5641,0.42899 5.0903,0.8334c-0.0142,-0.11705 -0.0009,-0.23917 0.0441,-0.35698c0.2031,-0.53202 0.3584,-1.02488 0.468,-1.47175l0.0013,-0.00516c0.1404,-0.57347 0.2037,-1.06419 0.2003,-1.46203c-0.003,-0.34257 -0.0553,-0.58728 -0.1264,-0.75116c-0.0709,-0.16335 -0.1566,-0.24144 -0.2481,-0.28568c-0.2131,-0.10307 -0.6884,-0.11608 -1.5188,0.2895c-0.2145,0.10475 -0.4424,0.2327 -0.6819,0.38388l-1.1451,0.83237c-0.6697,0.54588 -1.3749,1.21778 -2.0837,1.99361zM9.34834,9.73983c-1.54832,0.05188 -2.90564,0.2442 -3.9688,0.54037c-0.05123,0.0143 -0.10159,0.0288 -0.15108,0.0434l-0.0091,0.0028c-0.78851,0.2341 -1.35066,0.5127 -1.69322,0.7923c-0.13298,0.1086 -0.22124,0.2064 -0.27875,0.2933c-0.08755,0.1326 -0.10382,0.2401 -0.09823,0.3208l0.00032,0.0044c0.00376,0.0479 0.01542,0.1029 0.03973,0.1663c0.04447,0.1159 0.1314,0.2598 0.28417,0.4268c0.27601,0.3018 0.72103,0.629 1.34225,0.9542c0.14348,0.0751 0.29508,0.1495 0.4545,0.2228c0.26579,0.1223 0.55246,0.2413 0.85843,0.356l0.58869,0.2078c0.54586,-1.1255 1.23357,-2.3107 2.04489,-3.5008c0.19241,-0.2823 0.38802,-0.5593 0.5862,-0.83047z" fill-rule="evenodd"></path><path d="M11.7647,14.2813c-0.0138,-0.9104 -0.0206,-1.3656 0.2664,-1.5313c0.287,-0.1657 0.6778,0.0678 1.4594,0.5349l0.2022,0.1209c0.2221,0.1327 0.3331,0.199 0.4554,0.2145c0.1224,0.0155 0.2421,-0.0217 0.4817,-0.0961l0.2181,-0.0677c0.8429,-0.2618 1.2644,-0.3927 1.5177,-0.1587c0.2534,0.234 0.1708,0.6779 0.0057,1.5657l-0.0427,0.2297c-0.0469,0.2523 -0.0704,0.3784 -0.0426,0.5017c0.0279,0.1232 0.1038,0.2296 0.2558,0.4423l0.1383,0.1937c0.5347,0.7486 0.802,1.1229 0.6716,1.4332c-0.1304,0.3104 -0.5723,0.3512 -1.4559,0.4328l-0.2286,0.0211c-0.2511,0.0232 -0.3766,0.0348 -0.4818,0.0955c-0.1051,0.0607 -0.1779,0.1636 -0.3235,0.3695l-0.1326,0.1874c-0.5125,0.7244 -0.7688,1.0867 -1.1027,1.0444c-0.334,-0.0422 -0.5245,-0.4608 -0.9055,-1.2982l-0.0985,-0.2166c-0.1083,-0.238 -0.1624,-0.357 -0.2552,-0.4427c-0.0929,-0.0857 -0.2138,-0.1285 -0.4558,-0.214l-0.2202,-0.0778c-0.8515,-0.3009 -1.2772,-0.4514 -1.3531,-0.7878c-0.076,-0.3364 0.2481,-0.6359 0.8962,-1.2351l0.1677,-0.155c0.1842,-0.1702 0.2763,-0.2554 0.3241,-0.369c0.0477,-0.1137 0.0458,-0.2431 0.0419,-0.5018z" fill-rule="nonzero"></path></g></g></svg>

<?xml version="1.0" encoding="utf-8"?><!-- Uploaded to: SVG Repo, www.svgrepo.com, Generator: SVG Repo Mixer Tools -->
<svg width="800px" height="800px" viewBox="0 0 24 24" fill="none" xmlns="http://www.w3.org/2000/svg">
<path fill-rule="evenodd" clip-rule="evenodd" d="M15.6982 3.7536C16.6292 3.29889 17.6651 3.04415 18.5283 3.46151C18.9884 3.68399 19.3067 4.05664 19.4993 4.50023C19.6743 4.90322 19.7456 5.36164 19.7497 5.83576C19.7532 6.23436 19.7093 6.66491 19.6252 7.11782C19.4982 7.80246 19.2778 8.5467 18.9815 9.32271C18.9505 9.40394 18.9069 9.47667 18.8538 9.53952C19.0391 9.60206 19.2198 9.66638 19.3959 9.73238L19.3975 9.73299C19.4442 9.75052 19.4954 9.77 19.5413 9.7877C19.6747 9.83919 19.8052 9.89165 19.9328 9.94504C20.2587 10.0815 20.5652 10.224 20.8498 10.3719C21.1424 10.5239 21.4155 10.6833 21.6655 10.8499C22.5277 11.4244 23.2702 12.1904 23.3452 13.1462C23.3852 13.6557 23.224 14.1185 22.9381 14.5086C22.6784 14.8629 22.3186 15.1558 21.9113 15.3985C21.5689 15.6025 21.1749 15.7818 20.7415 15.9377C20.0862 16.1733 19.3325 16.3585 18.513 16.4941C18.1043 16.5617 17.7182 16.2853 17.6506 15.8766C17.5829 15.4679 17.8594 15.0818 18.2681 15.0142C18.8299 14.9212 19.3338 14.8067 19.7749 14.676L19.78 14.6744C20.346 14.5064 20.8017 14.3136 21.1435 14.1099C21.4378 13.9346 21.6227 13.766 21.7283 13.6219C21.8336 13.4782 21.8578 13.3649 21.8498 13.2636C21.8313 13.0276 21.6028 12.6106 20.8337 12.0982C20.6351 11.9658 20.4097 11.8336 20.1583 11.703L18.862 11.1341C17.1091 10.478 14.7612 9.97604 12.1765 9.79571C11.8557 9.77333 11.5395 9.75647 11.2284 9.74492C10.812 10.2712 10.4009 10.8295 10.0015 11.4152C9.25782 12.5061 8.633 13.5782 8.13606 14.5844C8.45075 14.7636 8.59751 15.1499 8.46595 15.4997C8.32318 15.8793 7.90557 16.0752 7.52427 15.9464C7.29807 16.5091 7.11978 17.0399 6.99138 17.5285C6.97786 17.5799 6.96495 17.6307 6.95263 17.6808L6.95042 17.6901C6.75486 18.489 6.71186 19.115 6.78051 19.5518C6.80715 19.7214 6.84709 19.8469 6.89314 19.9404C6.96347 20.0829 7.04805 20.1512 7.1206 20.1871L7.12451 20.189C7.16777 20.2099 7.22113 20.2276 7.28814 20.2385C7.41072 20.2586 7.57881 20.2562 7.80007 20.2085C8.19983 20.1224 8.70682 19.9032 9.30101 19.5308C9.43826 19.4448 9.57893 19.3514 9.72266 19.2508C9.96229 19.0829 10.2097 18.8955 10.4631 18.6891L11.6385 17.734C11.96 17.4728 12.4323 17.5217 12.6935 17.8431C12.9547 18.1646 12.9059 18.637 12.5844 18.8982L11.4101 19.8524C11.1314 20.0793 10.8551 20.2889 10.5831 20.4794C10.4199 20.5937 10.2579 20.7014 10.0975 20.8019C9.41995 21.2265 8.7471 21.5389 8.11598 21.6749C7.75962 21.7516 7.39685 21.7764 7.04538 21.7188C6.84837 21.6865 6.65532 21.6283 6.47154 21.5394L6.4552 21.5314C5.72572 21.1703 5.38971 20.4583 5.2878 19.7107C5.18681 18.9698 5.29353 18.0875 5.54064 17.1472C5.68116 16.6126 5.87154 16.0425 6.10862 15.4467L5.60186 15.2678C5.26534 15.1416 4.94497 15.0088 4.6433 14.8701C4.46223 14.7868 4.28756 14.7012 4.11986 14.6134C3.41152 14.2425 2.80234 13.8191 2.36659 13.3428C2.12054 13.0738 1.91616 12.7731 1.78864 12.4405C1.71717 12.2541 1.67005 12.058 1.65408 11.8545L1.65274 11.8364C1.59654 11.0244 2.04186 10.3751 2.63601 9.90997C3.22481 9.44904 4.04044 9.09617 4.97697 8.83525C6.46452 8.42082 8.38686 8.20311 10.5287 8.22755C11.5421 7.01274 12.5875 5.96465 13.5885 5.1496L13.5898 5.1485C13.6285 5.11705 13.6712 5.0826 13.7096 5.05194C13.8213 4.96273 13.9325 4.87649 14.0429 4.7933C14.3251 4.58067 14.6028 4.38799 14.874 4.21681C15.1529 4.04083 15.4283 3.88542 15.6982 3.7536ZM12.4458 8.31129C14.2717 8.44839 16.0099 8.74028 17.5361 9.14469C17.5219 9.02764 17.5352 8.90552 17.5802 8.78771C17.7833 8.25569 17.9386 7.76283 18.0482 7.31596L18.0495 7.3108C18.1899 6.73733 18.2532 6.24661 18.2498 5.84877C18.2468 5.5062 18.1945 5.26149 18.1234 5.09761C18.0525 4.93426 17.9668 4.85617 17.8753 4.81193C17.6622 4.70886 17.1869 4.69585 16.3565 5.10143C16.142 5.20618 15.9141 5.33413 15.6746 5.48531L14.5295 6.31768C13.8598 6.86356 13.1546 7.53546 12.4458 8.31129ZM9.34834 9.73983C7.80002 9.79171 6.4427 9.98403 5.37954 10.2802C5.32831 10.2945 5.27795 10.309 5.22846 10.3236L5.21936 10.3264C4.43085 10.5605 3.8687 10.8391 3.52614 11.1187C3.39316 11.2273 3.3049 11.3251 3.24739 11.412C3.15984 11.5446 3.14357 11.6521 3.14916 11.7328L3.14948 11.7372C3.15324 11.7851 3.1649 11.8401 3.18921 11.9035C3.23368 12.0194 3.32061 12.1633 3.47338 12.3303C3.74939 12.6321 4.19441 12.9593 4.81563 13.2845C4.95911 13.3596 5.11071 13.434 5.27013 13.5073C5.53592 13.6296 5.82259 13.7486 6.12856 13.8633L6.71725 14.0711C7.26311 12.9456 7.95082 11.7604 8.76214 10.5703C8.95455 10.288 9.15016 10.011 9.34834 9.73983Z" fill="#1C274C"/>
<path d="M11.7647 14.2813C11.7509 13.3709 11.7441 12.9157 12.0311 12.75C12.3181 12.5843 12.7089 12.8178 13.4905 13.2849L13.6927 13.4058C13.9148 13.5385 14.0258 13.6048 14.1481 13.6203C14.2705 13.6358 14.3902 13.5986 14.6298 13.5242L14.8479 13.4565C15.6908 13.1947 16.1123 13.0638 16.3656 13.2978C16.619 13.5318 16.5364 13.9757 16.3713 14.8635L16.3286 15.0932C16.2817 15.3455 16.2582 15.4716 16.286 15.5949C16.3139 15.7181 16.3898 15.8245 16.5418 16.0372L16.6801 16.2309C17.2148 16.9795 17.4821 17.3538 17.3517 17.6641C17.2213 17.9745 16.7794 18.0153 15.8958 18.0969L15.6672 18.118C15.4161 18.1412 15.2906 18.1528 15.1854 18.2135C15.0803 18.2742 15.0075 18.3771 14.8619 18.583L14.7293 18.7704C14.2168 19.4948 13.9605 19.8571 13.6266 19.8148C13.2926 19.7726 13.1021 19.354 12.7211 18.5166L12.6226 18.3C12.5143 18.062 12.4602 17.943 12.3674 17.8573C12.2745 17.7716 12.1536 17.7288 11.9116 17.6433L11.6914 17.5655C10.8399 17.2646 10.4142 17.1141 10.3383 16.7777C10.2623 16.4413 10.5864 16.1418 11.2345 15.5426L11.4022 15.3876C11.5864 15.2174 11.6785 15.1322 11.7263 15.0186C11.774 14.9049 11.7721 14.7755 11.7682 14.5168L11.7647 14.2813Z" fill="#1C274C"/>
</svg>
